Suru++-Ubuntu/apps/symbolic/resolve-symbolic.svg

<svg xmlns="http://www.w3.org/2000/svg" width="16" height="16" version="1.1">
 <path style="fill:#808080" d="m 3.460481,14.999181 c 0.181314,0.0055 0.384896,-0.01693 0.588423,-0.06015 0.602156,-0.131815 1.1136,-0.405597 1.506647,-0.890995 0.239035,-0.295997 0.439991,-0.616774 0.613208,-0.954144 0.203636,-0.39752 0.373789,-0.811688 0.522167,-1.230931 C 6.87224,11.35584 7.026197,10.837641 7.144703,10.313873 7.210523,10.020442 7.136503,9.8366102 6.812002,9.7355242 6.39975,9.6067112 5.984434,9.4915432 5.561078,9.3981542 4.860167,9.2445602 4.153677,9.1460402 3.433071,9.1703292 3.229489,9.1785292 3.026344,9.2003492 2.825389,9.2359892 2.242492,9.3375662 1.747735,9.6062732 1.343636,10.031084 0.653395,10.754893 0.37885193,11.618542 0.54905997,12.60298 0.793675,14.009664 2.041974,15.010259 3.460481,14.999179 Z"/>
 <path style="fill:#808080" d="m 5.084438,4.3258802 c -0.0082,0.214368 0.02992,0.448711 0.09307,0.68311 0.120325,0.44598 0.319742,0.854628 0.554897,1.240628 0.535696,0.877789 1.210918,1.629302 1.943528,2.327038 0.06,0.05736 0.131423,0.10579 0.207903,0.142722 0.07659,0.03983 0.153072,0.03983 0.232219,0.0057 0.07648,-0.03414 0.144911,-0.08274 0.202355,-0.145852 0.254248,-0.262854 0.50556,-0.526105 0.746209,-0.797778 0.33889,-0.386 0.661623,-0.783097 0.954112,-1.209102 0.265346,-0.385943 0.503004,-0.791973 0.677779,-1.232206 0.174776,-0.437556 0.259743,-0.888885 0.202355,-1.363432 C 10.803185,3.1936572 10.483494,2.5301792 9.91206,2.0099362 9.236403,1.3957972 8.449395,1.1499022 7.563714,1.2868772 6.123189,1.5101222 5.078887,2.8365662 5.084436,4.3258202 Z"/>
 <path style="fill:#808080" d="m 12.539519,14.999181 c -0.181314,0.0055 -0.384895,-0.01693 -0.588422,-0.06015 C 11.348941,14.807216 10.837496,14.533434 10.444449,14.048036 10.205414,13.752039 10.004459,13.431262 9.831242,13.093892 9.627606,12.696372 9.457453,12.282204 9.309075,11.862961 9.127761,11.35584 8.973803,10.837641 8.855297,10.313873 c -0.06582,-0.293431 0.0082,-0.4772628 0.332702,-0.5783488 0.412251,-0.128813 0.827566,-0.243981 1.250924,-0.33737 0.70091,-0.153594 1.407401,-0.252114 2.128007,-0.227825 0.203582,0.0082 0.406726,0.03002 0.607682,0.06566 0.582896,0.101577 1.077653,0.370284 1.481753,0.7950948 0.69024,0.723809 0.964783,1.587458 0.794575,2.571896 -0.244615,1.406684 -1.492914,2.407279 -2.911421,2.396199 z"/>
</svg>

<svg width="16" height="16" version="1.1" xmlns="http://www.w3.org/2000/svg">
 <path d="m3.460481 14.999181c0.181314 0.0055 0.384896-0.01693 0.588423-0.06015 0.602156-0.131815 1.1136-0.405597 1.506647-0.890995 0.239035-0.295997 0.439991-0.616774 0.613208-0.954144 0.203636-0.39752 0.373789-0.811688 0.522167-1.230931 0.181314-0.507121 0.335271-1.02532 0.453777-1.549088 0.06582-0.293431-0.0082-0.4772628-0.332701-0.5783488-0.412252-0.128813-0.827568-0.243981-1.250924-0.33737-0.700911-0.153594-1.407401-0.252114-2.128007-0.227825-0.203582 0.0082-0.406727 0.03002-0.607682 0.06566-0.582897 0.101577-1.077654 0.370284-1.481753 0.7950948-0.690241 0.723809-0.96478407 1.587458-0.79457603 2.571896 0.24461503 1.406684 1.492914 2.407279 2.911421 2.396199z" style="fill:#808080"/>
 <path d="m5.084438 4.3258802c-0.0082 0.214368 0.02992 0.448711 0.09307 0.68311 0.120325 0.44598 0.319742 0.854628 0.554897 1.240628 0.535696 0.877789 1.210918 1.629302 1.943528 2.327038 0.06 0.05736 0.131423 0.10579 0.207903 0.142722 0.07659 0.03983 0.153072 0.03983 0.232219 0.0057 0.07648-0.03414 0.144911-0.08274 0.202355-0.145852 0.254248-0.262854 0.50556-0.526105 0.746209-0.797778 0.33889-0.386 0.661623-0.783097 0.954112-1.209102 0.265346-0.385943 0.503004-0.791973 0.677779-1.232206 0.174776-0.437556 0.259743-0.888885 0.202355-1.363432-0.09568-0.783051-0.415371-1.446529-0.986805-1.966772-0.675657-0.614139-1.462665-0.860034-2.348346-0.723059-1.440525 0.223245-2.484827 1.549689-2.479278 3.038943z" style="fill:#808080"/>
 <path d="m12.539519 14.999181c-0.181314 0.0055-0.384895-0.01693-0.588422-0.06015-0.602156-0.131815-1.113601-0.405597-1.506648-0.890995-0.239035-0.295997-0.43999-0.616774-0.613207-0.954144-0.203636-0.39752-0.373789-0.811688-0.522167-1.230931-0.181314-0.507121-0.335272-1.02532-0.453778-1.549088-0.06582-0.293431 0.0082-0.4772628 0.332702-0.5783488 0.412251-0.128813 0.827566-0.243981 1.250924-0.33737 0.70091-0.153594 1.407401-0.252114 2.128007-0.227825 0.203582 0.0082 0.406726 0.03002 0.607682 0.06566 0.582896 0.101577 1.077653 0.370284 1.481753 0.7950948 0.69024 0.723809 0.964783 1.587458 0.794575 2.571896-0.244615 1.406684-1.492914 2.407279-2.911421 2.396199z" style="fill:#808080"/>
</svg>
